assets/images/img_nav_onprimary_24x24.svg

<svg xmlns="http://www.w3.org/2000/svg" width="24" height="24" fill="none" viewBox="0 0 24 24"><path fill="#222" fill-rule="evenodd" d="M8 6H6V5H4v3h16V5h-2v1h-2V5H8v1Zm12 4H4v10h16V10Zm-4-7H8V2H6v1H4a2 2 0 0 0-2 2v15a2 2 0 0 0 2 2h16a2 2 0 0 0 2-2V5a2 2 0 0 0-2-2h-2V2h-2v1ZM7 14v-2h2v2H7Zm4 0h2v-2h-2v2Zm4 0v-2h2v2h-2Zm-8 2v2h2v-2H7Zm6 2h-2v-2h2v2Z" clip-rule="evenodd"/></svg>

<svg width="24" height="24" viewBox="0 0 24 24" fill="none" xmlns="http://www.w3.org/2000/svg">
<path fill-rule="evenodd" clip-rule="evenodd" d="M8 6H6V5H4V8H20V5H18V6H16V5H8V6ZM20 10H4V20H20V10ZM16 3H8V2H6V3H4C2.89543 3 2 3.89543 2 5V20C2 21.1046 2.89543 22 4 22H20C21.1046 22 22 21.1046 22 20V5C22 3.89543 21.1046 3 20 3H18V2H16V3ZM7 14V12H9V14H7ZM11 14H13V12H11V14ZM15 14V12H17V14H15ZM7 16V18H9V16H7ZM13 18H11V16H13V18Z" fill="#222222"/>
</svg>
